!!!CDT:
!!!PTL: Musiche di Sigismondo d' India 
!!!PPP: Milan
!!!PPR: Simon Tini & Filippo Lomazzo
!!!PDT: 1609
!!!PUB-format:
!!!RISM: I 24
!!!AGN: Madrigal
!!!SCT: Tsg07021a
!!!SCA: Tsg07021a
!!!original-voices: 1+bc
!!!extant-voices: 1+bc
!!!complete: Y
!!!final: (G)G
!!!COM: D'India, Sigismondo
!!!OTL: Forse avverrà se 'l ciel benigno ascolta
**kern	**fb	**kern	**text
*part2	*part2	*part1	*part1
*staff2	*staff2	*staff1	*staff1
*I"[Basso continuo]	*	*I"[Canto]	*
*I'Bc	*	*I'C	*
*oclefF4	*	*oclefC1	*
*clefF4	*	*clefG2	*
*k[b-]	*	*k[b-]	*
*F:	*	*F:	*
*omet(C)	*	*omet(C)	*
*M4/4	*	*M4/4	*
=1	=1	=1	=1
!!LO:TX:a:t=[Quinta parte.]
1G	.	2dd	For-
.	.	4dd	-se av-
.	.	4dd	-ver-
=2	=2	=2	=2
1G	.	2dd	-rà,
.	.	8r	.
.	.	8b-y	se'l
.	.	8b-y	ciel
.	.	8b-y	be-
=3	=3	=3	=3
1G	.	2b-y	-ni-
.	.	8gL	-gno a-
.	.	8aJ	.
.	.	8b-yL	.
.	.	8ccJ	.
=4	=4	=4	=4
1F	11:10	8ddL	.
.	.	8ccJ	.
.	.	8ccL	.
.	.	8ccJ	.
.	.	2cc	-scol-
=5	=5	=5	=5
1BB-y	.	1b-y	-ta
=6	=6	=6	=6
1BB-y	.	4r	.
.	.	4b-y	Af-
.	.	4b-y	-fet-
.	.	4b-y	-tuo-
=7	=7	=7	=7
1BB-y	.	2.b-y	-s'al-
.	.	4b-y	-cun
=8	=8	=8	=8
1E-X	7:6	2b-y	pre-
.	.	[2ee-X	-go
=9	=9	=9	=9
2G	.	4ee-]	.
.	.	4dd	mor-
2F	.	8ddL	.
.	.	16eenXi	.
.	.	16ffJ	.
.	.	[8ccL	.
.	.	8cc]J	.
=10	=10	=10	=10
1FF	11:10	1cc	-ta-
=11	=11	=11	=11
1BB-y	.	1b-y	-le,
=12	=12	=12	=12
1F	.	4r	.
.	.	4a	Che
.	.	8a	ven-
.	.	8a	-ga in
.	.	8a	que-
.	.	8b-y	-ste
=13	=13	=13	=13
2c	.	4cc	sel-
.	.	2cc	-ve an-
2A	6#	.	.
.	.	8b-y	-co
.	.	8cc	tal
=14	=14	=14	=14
1G	4:3	2dd	vol-
.	.	2dd	-ta
=15	=15	=15	=15
1G	.	2.b-y	Que-
.	.	4g	-gli a
=16	=16	=16	=16
1E-X	.	4g	cui
.	.	8g	di
.	.	8g	me
.	.	4g	for-
.	.	[4cc	-s'hor
=17	=17	=17	=17
2D	#11	4cc]	.
.	.	16ddL	nul-
.	.	16a	.
.	.	16b-y	.
.	.	16fJ	.
2D	.	16gL	.
.	.	16d	.
.	.	[8e-XJ	.
.	.	4e-]	.
=18	=18	=18	=18
4C	.	16cL	-la
.	.	16d	.
.	.	16enXi	.
.	.	16fJ	.
4E-X	.	16gL	.
.	.	16f	.
.	.	16g	.
.	.	16cJ	.
2D	.	16dL	.
.	.	16e	.
.	.	16f	.
.	.	16gJ	.
.	.	16aL	.
.	.	16g	.
.	.	16a	.
.	.	16dJ	.
=19	=19	=19	=19
1D	.	16eL	.
.	.	16f	.
.	.	16g	.
.	.	16aJ	.
.	.	16b-yL	.
.	.	16a	.
.	.	16b-y	.
.	.	16gJ	.
.	.	16aL	.
.	.	16b-y	.
.	.	16cc	.
.	.	16ddJ	.
.	.	16ccL	.
.	.	16dd	.
.	.	16b-y	.
.	.	16ccJ	.
=20	=20	=20	=20
2D	#	16b-yL	.
.	.	16cc	.
.	.	16a	.
.	.	16b-yJ	.
.	.	16aL	.
.	.	16b-y	.
.	.	8gJ	.
2DD	11:#	2a	ca-
=21	=21	=21	=21
1GG	.	1g	-le,
=22	=22	=22	=22
1F	.	4r	.
.	.	4a	Che
.	.	8a	ven-
.	.	8a	-ga in
.	.	8a	que-
.	.	8b-y	-ste
=23	=23	=23	=23
2c	.	4cc	sel-
.	.	2cc	-ve an-
2A	6#	.	.
.	.	8b-y	-co
.	.	8cc	tal
=24	=24	=24	=24
1G	4:3	2dd	vol-
.	.	2dd	-ta
=25	=25	=25	=25
[1G	.	2.g	Que-
.	.	4d	-gli a
=26	=26	=26	=26
2G]	.	4d	cui
.	.	8d	di
.	.	8e-X	me
2E-X	.	4e-i	for-
.	.	4cc	-s'hor
=27	=27	=27	=27
[2D	#11	4cc	nul-
.	.	16ddL	-la
.	.	16cc	.
.	.	16b-y	.
.	.	16aJ	.
2D]	.	16gL	.
.	.	16f	.
.	.	16g	.
.	.	16dJ	.
.	.	4e-X	.
=28	=28	=28	=28
2C	.	16cL	.
.	.	16d	.
.	.	16c	.
.	.	16dJ	.
.	.	16enXiL	.
.	.	16f	.
.	.	16e	.
.	.	16fJ	.
2E-X	.	16gL	.
.	.	16a	.
.	.	16g	.
.	.	16fJ	.
.	.	16gL	.
.	.	16f	.
.	.	16g	.
.	.	16cJ	.
=29	=29	=29	=29
2D	.	16dL	.
.	.	16e	.
.	.	16d	.
.	.	16eJ	.
.	.	16fL	.
.	.	16g	.
.	.	16f	.
.	.	16gJ	.
2D	.	16aL	.
.	.	16b-y	.
.	.	16a	.
.	.	16gJ	.
.	.	16aL	.
.	.	16g	.
.	.	16a	.
.	.	16dJ	.
=30	=30	=30	=30
2C	.	16eL	.
.	.	16f	.
.	.	16e	.
.	.	16fJ	.
.	.	16gL	.
.	.	16a	.
.	.	16g	.
.	.	16aJ	.
2BB-y	.	16b-yL	.
.	.	16cc	.
.	.	16b-y	.
.	.	16aJ	.
.	.	16b-yL	.
.	.	16a	.
.	.	16b-y	.
.	.	16gJ	.
=31	=31	=31	=31
1D	#11:#	16aL	.
.	.	16b-y	.
.	.	16cc	.
.	.	16ddJ	.
.	.	16aL	.
.	.	16b-y	.
.	.	16a	.
.	.	16b-yJ	.
.	.	4g	.
.	.	4a	ca-
=32	=32	=32	=32
1GGl	.	1gl	-le.
=33||	=33||	=33||	=33||
!!LO:TX:t=[Sesta parte.]
1GG	.	2.g	E
.	.	8g	ri-
.	.	8g	-vol-
=34	=34	=34	=34
1GG	.	4.b-y	-gen-
.	.	8g	-do
.	.	4g	gl'oc-
.	.	[4d	-chi o-
=35	=35	=35	=35
1FF	10:11:10	4d]	.
.	.	8c	-ve
.	.	8B-y	se-
.	.	2c	-pol-
=36	=36	=36	=36
1BB-y	.	1B-y	-ta
=37	=37	=37	=37
1BB-y	.	4d	Gia-
.	.	4d	-ce-
.	.	4d	-rà
.	.	8d	que-
.	.	8d	-sta
=38	=38	=38	=38
2BB-y	.	2.f	spo-
2E-X	.	.	.
.	.	4g	-glia in-
=39	=39	=39	=39
1C	.	4.e-X	-fer-
.	.	16cL	-m'e
.	.	16dJ	.
.	.	16e-iL	.
.	.	16f	.
.	.	16g	.
.	.	16aJ	.
.	.	16b-yL	.
.	.	16cc	.
.	.	16dd	.
.	.	16ee-iJ	.
=40	=40	=40	=40
2D	6	1ff	.
2F	4:3	.	.
=41	=41	=41	=41
1F	.	4r	.
.	.	16ffL	fra-
.	.	16ee	.
.	.	16ff	.
.	.	16ccJ	.
.	.	16ddL	.
.	.	16cc	.
.	.	16dd	.
.	.	16aJ	.
.	.	16b-yL	.
.	.	16a	.
.	.	16b-y	.
.	.	16gJ	.
=42	=42	=42	=42
2FF	.	8r	.
.	.	16aL	.
.	.	16gJ	.
.	.	16b-yL	.
.	.	16a	.
.	.	16cc	.
.	.	16b-yJ	.
2FF	11:10	2cc	.
=43	=43	=43	=43
1BB-y	.	1b-y	-le,
=44	=44	=44	=44
1F	.	4a	Tar-
.	.	4a	-do
.	.	[2a	pre-
=45	=45	=45	=45
1F	.	4a]	.
.	.	8b-y	-mio
.	.	8a	con-
.	.	4.cc	-ce-
.	.	8cc	-d'a
=46	=46	=46	=46
2D	7:6#	4cc	miei
.	.	4dd	mar-
4E-X	.	8ccL	-ti-
.	.	16dd	.
.	.	16ee-XJ	.
4G	#	[8bnXL	.
.	.	8b]J	.
=47	=47	=47	=47
1A	7:7#	4.cc	.
.	.	16ddL	.
.	.	16ee-XJ	.
.	.	4.dd	.
.	.	8cc	.
=48	=48	=48	=48
1G	4:3	1dd	-ri
=49	=49	=49	=49
1G	.	8r	.
.	.	8b-y	Di
.	.	4.b-y	po-
.	.	8a	-che
.	.	8.a	la-
.	.	16g	-gri-
=50	=50	=50	=50
1E-X	.	8.g	-met-
.	.	16g	-t'e
.	.	4cc	di
.	.	16gL	so-
.	.	16a	.
.	.	16b-y	.
.	.	16ccJ	.
.	.	16ddL	.
.	.	16cc	.
.	.	16cc	.
.	.	16b-yJ	.
=51	=51	=51	=51
2E-i	.	16ccL	.
.	.	16f	.
.	.	16g	.
.	.	16aJ	.
.	.	16b-yL	.
.	.	16a	.
.	.	16a	.
.	.	16gJ	.
2D	4:3	16aL	.
.	.	16d	.
.	.	16e	.
.	.	16fJ	.
.	.	16gL	.
.	.	16f	.
.	.	16f	.
.	.	16eJ	.
=52	=52	=52	=52
1D	.	16fL	.
.	.	16g	.
.	.	16a	.
.	.	16b-yJ	.
.	.	16ccL	.
.	.	16b-y	.
.	.	16b-y	.
.	.	16aJ	.
.	.	2b-y	.
=53	=53	=53	=53
1D	.	4r	.
.	.	8b-yL	-spi-
.	.	8ccJ	.
.	.	8ddL	.
.	.	8aJ	.
.	.	8b-yL	.
.	.	8fJ	.
=54	=54	=54	=54
2D	.	2.g	.
2DD	.	.	.
.	.	4f#X	.
=55	=55	=55	=55
1GG	.	1g	-ri,
=56	=56	=56	=56
1F	.	4cc	Tar-
.	.	4cc	-do
.	.	[2cc	pre-
=57	=57	=57	=57
1F	.	4cc]	.
.	.	8b-y	-mio
.	.	8a	con-
.	.	4.cc	-ce-
.	.	8cc	-d'a
=58	=58	=58	=58
2D	7:6#	4cc	miei
.	.	4dd	mar-
2C	.	8ee-XL	-ti-
.	.	8ddJ	.
.	.	[4dd	.
=59	=59	=59	=59
1G	.	8dd]L	.
.	.	16eenXi	.
.	.	16ffJ	.
.	.	[16bnXL	.
.	.	16b]	.
.	.	16cc	.
.	.	16ddJ	.
.	.	[16ee-XL	.
.	.	16ee-]	.
.	.	[8ddJ	.
.	.	8dd]L	.
.	.	16eenXi	.
.	.	16ffJ	.
=60	=60	=60	=60
1GG	11:#	1dd	-ri
=61	=61	=61	=61
1G	.	8r	.
.	.	8ee-X	Di
.	.	8.ee-i	po-
.	.	16dd	-che
.	.	4.dd	la-
.	.	8cc	-gri-
=62	=62	=62	=62
[1E-X	.	8.cc	-met-
.	.	16b-y	-t'e
.	.	4b-y	di
.	.	16gL	so-
.	.	16f	.
.	.	16g	.
.	.	16aJ	.
.	.	16b-yL	.
.	.	16cc	.
.	.	16b-y	.
.	.	16ccJ	.
=63	=63	=63	=63
2E-X]	.	16ddL	.
.	.	16cc	.
.	.	16cc	.
.	.	16b-yJ	.
.	.	16ccL	.
.	.	16f	.
.	.	16g	.
.	.	16aJ	.
2E-X	.	16gL	.
.	.	16f	.
.	.	16g	.
.	.	16aJ	.
.	.	16b-yL	.
.	.	16a	.
.	.	16a	.
.	.	16gJ	.
=64	=64	=64	=64
2D	.	16aL	.
.	.	16d	.
.	.	16e	.
.	.	16fJ	.
.	.	16eL	.
.	.	16d	.
.	.	16e	.
.	.	16fJ	.
2D	4	16gL	.
.	.	16f	.
.	.	16f	.
.	.	16eJ	.
.	.	16fL	.
.	.	16e	.
.	.	16f	.
.	.	16gJ	.
=65	=65	=65	=65
1D	.	16aL	-spi-
.	.	16b-y	.
.	.	16a	.
.	.	16b-yJ	.
.	.	16ccL	.
.	.	16b-y	.
.	.	16b-y	.
.	.	16aJ	.
.	.	2b-y	.
=66	=66	=66	=66
1D	.	4r	.
.	.	16b-yL	.
.	.	16a	.
.	.	16b-y	.
.	.	16ccJ	.
.	.	16ddL	.
.	.	16a	.
.	.	16a	.
.	.	16b-yJ	.
.	.	[8f#XL	.
.	.	8f#]J	.
=67	=67	=67	=67
2D	.	2.g	.
2DD	.	.	.
.	.	4f#X	.
=68	=68	=68	=68
1GGl	.	1gl	-ri.
==	==	==	==
*-	*-	*-	*-
!!!system-decoration: [*]
!!!RDF**kern: i = editorial accidental
!!!RDF**kern: l = terminal long
!!!ENC: Emiliano Ricciardi
!!!END: 2019/08/08
!!!EED: Ricciardi, Emiliano
!!!EEV: 2019/08/08
!!!YEC: Copyright 2018 Emiliano Ricciardi, All Rights Reserved
!!!ONB: Translated from MusicXML on 2019/08/08 and edited by Craig Stuart Sapp
!!@@BEGIN:	VERSEDATA
!!@CATALOGNUM:	Tsg07021
!!@LAST_MODIFIED: 2020/07/12
!!@TITLE:		Forse avverrà, se ’l Ciel benigno ascolta
!!@CANTO:		VII
!!@OTTAVA:	21
!!@MANUSRC:	G-Al, G-Au, G-Br<sub>1</sub>, G-Br<sub>2</sub>, G-Es<sub>1</sub>, G-Es<sub>2</sub>, G-Es<sub>3</sub>, G-F, G-Fr, G-Fr<sub>1</sub>, G-Fr<sub>2</sub>, G-Mc<sub>1</sub>, G-Mg, G-Mr, G-Mt, G-N
!!@PRINTSRC:	G-1580CM, G-1581B, G-1581CV, G-1581R, G-1581MR, G-1581P, G-1581V, G-1581V<sub>bis</sub>, G-1582C, G-1582M, G-1582MC, G-1582P, G-1582SC, G-1582SC<sub>bis</sub>, G-1583S, G-1584O, G-1584S, G-1585C, G-1585S, G-1588S, G-1589S, G-1590B, G-1590S, G-1592S, G-1593S, G-1594C, G-1595C, G-1597C, G-1598C, G-1599C, G-1600C, G-1600S, G-1601C, G-1601R, G-1602C, G-1604C, G-1604Cl, G-1604F, G-1604P, G-1606B, G-1606B<sub>bis</sub>, G-1606L, G-1607ZR, G-1608DP, G-1609GC, G-1610M, G-1611S, G-1611V, G-1612P, G-1613M, G-1613P, G-1613V, G-1615P, G-1616M, G-1617P, G-1619B, G-1619V, G-1620M, G-1620S, G-1621R, G-1624I, G-1624MT, G-1625C, G-1625S, G-1625SS, G-1626C, G-1626Co, G-1627M, G-1628T, G-1628Tu, G-1630L, G-1630T, G-1632FT, G-1639CF, G-1642M, G-1643I, G-1644P, G-1644S
!!@@BEGIN:	VERSES
!!@ABOUTIT:
!!@ABOUTEN:
!!@EDITOR:	Angelo Solerti
!!@EDITION_TITLE: Gerusalemme liberata. Poema eroico di Torquato Tasso. Edizione critica sui manoscritti e le prime stampe.
!!@EDITION_LOC:	Florence
!!@EDITION_PUB:	G. Barbera
!!@EDITION_DATE:  1895
!!@EDITION_VOL:	2
!!@EDITION_PAGE:  260
!!@TRANSLATOR:	Emiliano Ricciardi and Amyrose McCue Gill
!!@VERSE:
!!	Forse avverrà, se ’l Ciel benigno ascolta
!!	Affettuoso alcun prego mortale,
!!	Che venga in queste selve anco tal volta
!!	Quegli a cui di me forse or nulla cale;
!!	E rivolgendo gli occhi ove sepolta
!!	Giacerà questa spoglia inferma e frale,
!!	Tardo premio conceda a’ miei martìri
!!	Di poche lacrimette e di sospiri.
!!@MVERSE_DATE: 20230824
!!@MVERSE:
!!	For||se_av|ver|rà||, se_’l Ciel be|ni||gno_a|scol||ta	=a++
!!	Af|fet|tuo||so al|cun|| pre||go mor|ta||le,		=b+ (can this not be elided?)
!!	Che ven||ga_in que||ste sel||ve_an|co tal vol||ta	=a
!!	Que||gli_a cui di me for||se_or nul||la ca||le;		=b
!!	E ri|vol|gen||do gli_oc||chi_o||ve se|pol||ta		=a++
!!	Gia|ce|rà|| que||sta spo||glia_in|fer||ma_e fra||le,	=b
!!	Tar||do pre||mio con|ce||da_a’ miei mar|tì||ri		=c
!!	Di po||che la|cri|met||te_e di so|spi||ri.		=c
!!@TVERSE:
!!	Perhaps it will come to pass, if benevolent Heaven hears
!!	With affection any mortal prayer,
!!	That may come into these forests again sometime
!!	He who for me perhaps now cares nothing;
!!	And turning his eyes to where, interred,
!!	Will lie this body, infirm and frail,
!!	Late reward may he concede for my sacrifices
!!	Of a few little tears and of sighs.
!!@@END:		VERSES
!!@OTHER_CRIT_ED:  Torquato Tasso, <i>Gerusalemme liberata</i>, ed. Lanfranco Caretti, 2 vols. (Bari: Laterza, 1967).
!!@ATTRIBUTION_ABOUT:
!!@DATING:	mid-1560s through 1570s
!!@DEDICATEE:	Duke Alfonso II d'Este
!!@COMMENTARY:
!!@@END:		VERSEDATA
!!@@BEGIN: SETTING
!!@CATALOGNUM:	Tsg07021a
!!@CANTO:		VII
!!@OTTAVA:	21
!!@TITLE:	Forse avverrà se 'l ciel benigno ascolta
!!@COMPOSER:	D'India, Sigismondo
!!@PARTS:		4 of 4
!!@PRINCEPSTITLE:	Musiche di Sigismondo d' India 
!!@PRINCEPSLOC:	Milan
!!@NORMLOC:	Milan
!!@NORMPUB:	Simon Tini & Filippo Lomazzo
!!@NORMPUBSHORT:	Tini & Lomazzo
!!@PRINCEPSPUB:	Tini & Lomazzo
!!@PRINCEPSYEAR:	1609
!!@PRINCEPSRISM:	I 24
!!@OVOICES:	1+bc
!!@EXTANTVOICES:	1+bc
!!@OMENSURATION:	C
!!@OCLEFS:	C1,F4
!!@OTIME:		
!!@OKEYSIG:	b-
!!@FINAL:		(G)G
!!@TIMPEDITOR:	Ricciardi, Emiliano
!!@REPRINTS:	
!!@@END: SETTING
